img/pseudo-01.svg

<svg width="29" height="51" viewBox="0 0 29 51" fill="none" xmlns="http://www.w3.org/2000/svg">
<path opacity="0.08" d="M28.0295 44.175L27.1545 51H0.764532L1.63953 44.175H10.7745L14.2395 15.65C14.3095 15.0667 14.3912 14.4833 14.4845 13.9C14.5779 13.3167 14.6829 12.7217 14.7995 12.115L8.32453 17.68C7.83453 18.03 7.36786 18.2517 6.92453 18.345C6.4812 18.415 6.07287 18.415 5.69953 18.345C5.3262 18.275 4.99953 18.1467 4.71953 17.96C4.46286 17.7733 4.2762 17.575 4.15953 17.365L1.70953 13.41L17.8095 0.179999H25.4745L20.0845 44.175H28.0295Z" fill="#262D33"/>
</svg>

<svg width="29" height="51" fill="none" xmlns="http://www.w3.org/2000/svg"><path opacity=".08" d="M28.03 44.175L27.153 51H.764l.876-6.825h9.134L14.24 15.65c.07-.583.151-1.167.245-1.75a58.31 58.31 0 01.315-1.785L8.325 17.68c-.49.35-.957.572-1.4.665-.444.07-.852.07-1.225 0-.374-.07-.7-.198-.98-.385-.257-.187-.444-.385-.56-.595L1.71 13.41 17.81.18h7.665l-5.39 43.995h7.944z" fill="#262D33"/></svg>
